X:8
T:Brown Chest
Z: id:dc-hornpipe-63
M:C|
L:1/8
K:D Major
FG|ABAG FAde|fgfe dedA|BcdB AFDE|FEED E2FG|!
ABAG FAde|fgfe dedA|BcdB ABAG|F2D2 D2:|!
fg|agfd gfec|dcde fdAF|GABG FADF|EGgf eAce|!
agfd gfec|dcde fdAF|GABG FAEG|F2D2 D2:|!

